icons/crutches_fill.svg

<svg width="48" height="48" viewBox="0 0 48 48" fill="none" xmlns="http://www.w3.org/2000/svg">
<rect width="48" height="48" fill="white"/>
<path fill-rule="evenodd" clip-rule="evenodd" d="M30.0314 9.99982C31.1215 9.98308 32.0001 9.09417 32.0001 8.00006V4.00006H16.0001V8.00006C16.0001 9.09052 16.8728 9.97715 17.9578 9.99962C17.9614 10.0843 17.9662 10.189 17.9725 10.3152C17.9926 10.7188 18.0279 11.342 18.0894 12.2287C18.2122 14.0021 18.4392 16.8312 18.8567 21.068C19.0064 22.587 19.8977 23.9454 20.6038 25.0214L20.6828 25.1419C21.0666 25.7279 21.3995 26.2416 21.6419 26.74C21.8822 27.2341 21.997 27.6423 21.997 28.0023C21.997 28.2598 21.9978 29.0095 21.9986 29.694L22.0002 30.9989C22.0009 31.5508 22.4484 31.9981 23.0001 31.9981L23.0001 39.0017C23.0001 39.553 23.447 40 23.9983 40C24.5497 40 24.9966 39.553 24.9966 39.0017V38.9949H25.0001V32.0144L25.0097 32.0145C25.562 32.0145 26.0097 31.5668 26.0097 31.0144V27.9737C26.0097 27.6181 26.1247 27.217 26.3672 26.7304C26.6123 26.2386 26.9479 25.7341 27.3359 25.1542L27.4004 25.0579C28.1146 23.9919 29.0267 22.6305 29.1485 21.0816C29.4748 16.9302 29.7002 14.1029 29.844 12.3136C29.9159 11.4189 29.9674 10.7838 30.0009 10.3724L30.0314 9.99982ZM28.0075 10.21L28.0247 10.0001H19.9598C19.9626 10.0626 19.966 10.1344 19.97 10.2159C19.9894 10.6052 20.024 11.2153 20.0846 12.0906C20.1216 12.625 20.1683 13.2582 20.2272 14.0001H27.7026C27.7592 13.2908 27.8083 12.6776 27.8504 12.1534C27.9224 11.2581 27.9739 10.6222 28.0075 10.21ZM24.1336 27.004C24.2373 26.5897 24.397 26.1999 24.5771 25.8384C24.8851 25.2204 25.2896 24.6159 25.6576 24.0661L25.6737 24.042C26.4715 22.8498 27.0778 21.9015 27.1546 20.9248C27.305 19.0115 27.434 17.3792 27.5435 16.0001H20.3936C20.5114 17.3597 20.66 18.973 20.8471 20.8719C20.9448 21.8635 21.5634 22.8362 22.3558 24.046C22.7266 24.6121 23.1327 25.2325 23.4404 25.8652C23.6131 26.2203 23.7663 26.6012 23.868 27.004H24.1336Z" fill="black"/>
<path d="M22.302 41.9658C22.4359 41.334 23.3404 40.9934 23.9863 40.9934C24.6445 40.9934 25.554 41.3328 25.6935 41.9761L25.8423 42.6623C25.9359 43.094 25.7352 43.5387 25.3235 43.6989C24.9352 43.8501 24.4367 43.9999 23.9864 43.9999C23.5642 43.9999 23.0719 43.8496 22.6829 43.6982C22.2689 43.537 22.0634 43.091 22.1556 42.6563L22.302 41.9658Z" fill="black"/>
</svg>

<svg
  xmlns="http://www.w3.org/2000/svg"
  width="24"
  height="24"
  viewBox="0 0 24 24"
  fill="none"
  stroke="currentColor"
  stroke-width="2"
  stroke-linecap="round"
  stroke-linejoin="round"
>
  <rect width="48" height="48" />
  <path
    fill-rule="evenodd"
    d="M30.031 10a2 2 0 0 0 1.97-2V4H16v4a2 2 0 0 0 1.957 2l.015.315c.02.404.055 1.027.116 1.914.123 1.773.35 4.602.768 8.839.15 1.519 1.04 2.877 1.747 3.953l.079.12c.384.587.716 1.1.959 1.599.24.494.355.902.355 1.262 0 .258 0 1.008.002 1.692L22 30.999a1 1 0 0 0 1 1v7.003a.998.998 0 1 0 1.997 0v-.007H25v-6.98h.01a1 1 0 0 0 1-1v-3.041c0-.356.115-.757.357-1.244.245-.491.58-.996.969-1.576l.064-.096c.715-1.066 1.627-2.427 1.749-3.976A5097 5097 0 0 1 30 10.372zm-2.023.21.017-.21H19.96l.01.216c.02.39.054 1 .115 1.875.037.534.083 1.167.142 1.91h7.476zm-3.874 16.794c.103-.414.263-.804.443-1.166.308-.618.713-1.222 1.08-1.772l.017-.024c.797-1.192 1.404-2.14 1.48-3.117l.39-4.925h-7.15c.117 1.36.266 2.973.453 4.872.098.991.716 1.964 1.509 3.174.37.566.777 1.187 1.084 1.82.173.354.326.735.428 1.138z"
    clip-rule="evenodd"
  />
  <path d="M22.302 41.966c.134-.632 1.038-.973 1.684-.973.659 0 1.568.34 1.707.983l.15.686c.093.432-.108.877-.52 1.037-.388.151-.886.3-1.337.3-.422 0-.914-.15-1.303-.3-.414-.162-.62-.608-.527-1.043z" />
</svg>
